svgs/regular/landmark-flag.svg

<svg xmlns="http://www.w3.org/2000/svg" viewBox="0 0 512 512"><!--! Font Awesome Pro 6.6.0 by @fontawesome - https://fontawesome.com License - https://fontawesome.com/license (Commercial License) Copyright 2024 Fonticons, Inc. --><path d="M272 0L256 0c-8.8 0-16 7.2-16 16l0 112L48 128c-13.3 0-24 10.7-24 24s10.7 24 24 24l416 0c13.3 0 24-10.7 24-24s-10.7-24-24-24l-192 0 0-32 80 0c8.8 0 16-7.2 16-16l0-64c0-8.8-7.2-16-16-16L272 0zM112 208l-48 0 0 176-8 0c-13.3 0-24 10.7-24 24s10.7 24 24 24l400 0c13.3 0 24-10.7 24-24s-10.7-24-24-24l-8 0 0-176-48 0 0 176-64 0 0-176-48 0 0 176-64 0 0-176-48 0 0 176-64 0 0-176zM0 488c0 13.3 10.7 24 24 24l464 0c13.3 0 24-10.7 24-24s-10.7-24-24-24L24 464c-13.3 0-24 10.7-24 24z"/></svg>

<svg xmlns="http://www.w3.org/2000/svg" viewBox="0 0 512 512"><!--! Font Awesome Pro 6.4.0 by @fontawesome - https://fontawesome.com License - https://fontawesome.com/license (Commercial License) Copyright 2023 Fonticons, Inc. --><path d="M272 0H256c-8.8 0-16 7.2-16 16V128H48c-13.3 0-24 10.7-24 24s10.7 24 24 24H464c13.3 0 24-10.7 24-24s-10.7-24-24-24H272V96h80c8.8 0 16-7.2 16-16V16c0-8.8-7.2-16-16-16H272zM112 208H64V384H56c-13.3 0-24 10.7-24 24s10.7 24 24 24H456c13.3 0 24-10.7 24-24s-10.7-24-24-24h-8V208H400V384H336V208H288V384H224V208H176V384H112V208zM0 488c0 13.3 10.7 24 24 24H488c13.3 0 24-10.7 24-24s-10.7-24-24-24H24c-13.3 0-24 10.7-24 24z"/></svg>
